file/northface.svg

<svg clip-rule="evenodd" fill-rule="evenodd" stroke-linejoin="round" stroke-miterlimit="1.41421" viewBox="0 0 560 400" xmlns="http://www.w3.org/2000/svg"><g transform="matrix(.974958 0 0 .974958 42.635 -31.4873)"><path d="m305.649 321.041 122.436.008v-45.904c0-67.776-54.623-122.731-122.379-122.731l-.057-.002z" fill="#da2427"/><path d="m305.649 206.617v2.231h-1.116v-2.231zm5.511 2.244v-.005l-5.511-.008v-2.231l5.511.009zm66.764 64.552h-2.23l-.085-3.327-.25-3.278-.413-3.23-.564-3.177-.72-3.125-.871-3.063-1.015-2.999-1.153-2.93-1.293-2.856-1.424-2.784-1.554-2.706-1.681-2.617-1.8-2.531-1.914-2.441-2.028-2.339-2.139-2.246-2.24-2.135-2.339-2.03-2.44-1.919-2.53-1.795-2.616-1.683-2.705-1.555-2.783-1.424-2.856-1.293-2.933-1.154-2.998-1.015-3.058-.872-3.124-.72-3.176-.565-3.229-.413-3.277-.249-3.326-.081v-2.239l3.431.089 3.391.258 3.342.423 3.29.59 3.229.747 3.172.898 3.103 1.05 3.03 1.197 2.96 1.338 2.879 1.476 2.793 1.608 2.711 1.734 2.618 1.866 2.52 1.981 2.425 2.099 2.319 2.213 2.209 2.316 2.099 2.427 1.983 2.52 1.861 2.618 1.734 2.713 1.607 2.794 1.476 2.879 1.336 2.962 1.198 3.035 1.049 3.104.898 3.168.746 3.23.591 3.291.421 3.343.258 3.392zm-2.229 47.636-.001-47.636h2.23l.001 47.636zm0 0h2.23v1.116h-2.23z" fill="#fff" fill-rule="nonzero"/><path d="m332.447 321.041h2.231v1.115h-2.231zm-.013-36.89h2.234l.01 36.89h-2.231l-.009-36.89zm-17.424-17.42v-2.23l1.007.024 1 .076.985.122.97.176.95.221.933.263.919.309.89.354.874.393.848.436.82.473.8.508.771.548.74.585.716.618.683.649.649.683.618.716.585.74.547.771.509.8.472.82.436.847.393.874.353.889.309.913.263.937.22.949.177.969.122.984.075.998.029 1.005h-2.239l-.02-.9-.067-.884-.114-.871-.149-.855-.194-.844-.237-.823-.274-.808-.31-.794-.349-.768-.383-.751-.42-.732-.456-.705-.486-.683-.516-.661-.547-.629-.579-.604-.604-.579-.629-.548-.661-.515-.684-.486-.704-.457-.732-.42-.752-.383-.769-.35-.794-.31-.805-.274-.828-.237-.845-.194-.856-.15-.872-.113-.886-.068zm-9.363-2.2 9.363-.03v2.23l-9.363.031zm0 0v2.231h-1.116v-2.231z" fill="#fff" fill-rule="nonzero"/><path d="m256.065 285.608h-11c-.864-3.155-2.572-9.102-11.682-9.102-5.279 0-13.066 3.522-13.066 18.418 0 9.476 3.745 17.995 13.066 17.995 6.108 0 10.359-3.457 11.682-9.91h11.001c-2.196 11.446-9.672 19.445-22.894 19.445-14.02 0-24.085-9.456-24.085-27.671 0-18.421 10.643-27.82 24.241-27.82 15.778 0 22.15 10.869 22.737 18.645zm-148.53 28.23.007.346.026.338.044.334.057.33.074.321.091.316.105.31.118.302.134.296.149.284.158.281.175.269.184.261.199.253.209.24.22.231.233.221.24.209.253.199.261.184.269.174.281.158.285.149.295.133.302.118.311.105.314.09.323.074.327.057.332.044.338.025.345.009v-.002l.347-.007.34-.025.334-.044.331-.057.321-.074.317-.09.31-.105.302-.118.296-.133.286-.149.28-.158.269-.174.261-.184.251-.199.242-.209.23-.221.221-.231.209-.24.196-.253.186-.259.174-.271.158-.281.148-.284.13-.296.12-.302.105-.31.088-.316.075-.321.057-.33.044-.334.025-.338.007-.346h1.119-1.119l-.007-.345-.025-.339-.044-.332-.057-.328-.075-.322-.088-.317-.105-.309-.117-.302-.133-.296-.148-.287-.158-.278-.175-.269-.185-.263-.196-.251-.209-.243-.221-.231-.231-.219-.242-.21-.25-.199-.261-.184-.269-.174-.28-.159-.285-.148-.296-.134-.302-.118-.31-.105-.317-.091-.322-.074-.33-.057-.334-.044-.34-.025-.346-.007v-.003-1.114 1.114l-.345.01-.338.025-.333.044-.327.057-.323.074-.316.091-.31.105-.301.118-.296.134-.285.148-.28.159-.269.174-.261.186-.251.197-.243.21-.231.221-.222.232-.209.24-.197.253-.186.261-.175.269-.161.281-.146.284-.134.296-.118.302-.105.309-.091.317-.074.322-.057.328-.044.332-.026.339zm6.659 6.659v1.117zm97.053.561h-11.972l-3.375-10.864h-19.438l-3.679 10.864h-11.597l18.802-52.703h12.7zm-69.96 0h-11.01v-52.703h37.501v9.329h-26.491v11.889h23.203v9.329h-23.203zm157.218 0h-38.016v-52.703h37.954v9.329h-27.698v11.073h24.39v9.326h-24.39v13.654h27.76zm-183.311-7.523.087-.004.092-.006.095-.008.089-.01.084-.014.083-.014.08-.018.075-.021.072-.021.07-.024.067-.028.06-.026.059-.029.055-.033.053-.034.044-.034.048-.038.04-.037.04-.041.035-.042.032-.045.033-.047.028-.052.026-.053.025-.06.022-.066.019-.065.016-.076.014-.079.011-.084.006-.088v-.1h1.119l-.004.143-.011.146-.015.141-.023.136-.029.132-.037.131-.044.123-.05.12-.057.118-.063.11-.068.108-.076.102-.083.095-.084.089-.092.085-.091.077-.102.073-.1.065-.104.059-.107.055-.112.052-.111.042-.113.04-.116.036-.032.008 1.515 2.322-.935.608-1.828-2.802h.198l.095-.002h.011-.001l-.01.002.01-.002h.001l.125-.004.126-.007.122-.012.123-.014.123-.018.119-.024.119-.026.087-.021-.464-.713-.491.319-.445.289.152.233h-2.387v2.573h-1.119v-6.782l.56-.56v1.12h.559v-.56l-.559-.56h2.966l.177.005.171.006.168.01.162.015.157.02.151.026.142.027.143.035.136.039.131.045.127.05.123.056.115.06.112.067.105.071.103.078.092.082.093.093.079.093.075.097.069.105.061.106.052.107.046.113.041.115.034.116.028.116.021.118.017.117.012.122.005.122.004.123h-1.119l.001-.084-.006-.078-.007-.074-.008-.073-.013-.066-.014-.064-.017-.058-.019-.054-.021-.048-.025-.05-.026-.044-.025-.04-.031-.041-.036-.04-.032-.032-.043-.038-.043-.034-.051-.036-.056-.032-.063-.033-.066-.03-.075-.029-.082-.027-.088-.026-.095-.022-.108-.023-.111-.017-.118-.015-.126-.012-.134-.01-.144-.006-.151.001h-2.407v2.53h-.559v1.119h.559v-1.119h2.68l-.011.002zm-.273-2.532v-1.12zm-3.526-.56v-.56h.56zm74.895-30.195h-.14l-6.748 20.848h13.415zm-53.772-71.193c6.968 0 25.307 3.013 25.307 27.748.001 24.731-18.34 27.746-25.307 27.746-6.986 0-25.336-3.015-25.336-27.746.001-24.735 18.35-27.748 25.336-27.748zm103.465 54.098h-11.019v-43.384h-15.929v-9.315h42.858v9.315h-15.91zm30.873 0h-11.001v-52.699h11.001v19.957h20.549v-19.957h11.038v52.699h-11.038v-23.624h-20.549zm-197.743 0h-10.275v-52.699h11.588l20.925 36.698h.148v-36.698h10.293v52.699h-11.019l-21.504-37.577h-.156zm94.113-52.725h26.599c13.984 0 16.537 10.321 16.537 14.877.002 5.775-2.93 10.759-8.128 12.518 4.326 1.904 6.677 3.509 6.677 13.323.001 7.693 0 9.595 2.339 10.479l.001 1.383h-12.176c-.725-2.485-1.155-5.202-1.155-10.615 0-7.176-.431-9.962-8.577-9.962h-11.341v20.577h-10.776zm-30.708 44.8c5.942 0 14.298-3.67 14.298-18.425 0-14.745-8.357-18.43-14.298-18.43-5.942 0-14.327 3.685-14.327 18.43.002 14.755 8.385 18.426 14.327 18.425zm54.376-21.653c5.714 0 8.495-1.983 8.495-7.185 0-2.774-1.25-6.874-7.693-6.874h-13.694v14.059zm6.125-28.328h-11.01v-43.383h-15.938v-9.32h42.886v9.32h-15.938zm105.486 0h-38.016v-52.703h37.954v9.32h-27.698v11.088h24.39v9.319h-24.39v13.656h27.76zm-75.679 0h-11.01v-52.703h11.01v19.975h20.541v-19.975h11.018v52.703h-11.018v-23.641h-20.541zm-116.41 108.591.012-.398.03-.395.048-.39.07-.383.087-.376.104-.369.123-.361.14-.354.156-.344.172-.338.187-.324.201-.317.217-.305.232-.292.244-.284.257-.271.27-.256.282-.245.295-.231.305-.217.317-.201.324-.189.337-.171.344-.155.354-.14.362-.123.369-.103.375-.087.384-.071.389-.048.395-.03.398-.009v-.003l.399.012.396.03.391.048.383.071.378.087.37.103.362.123.354.14.344.155.338.171.324.189.317.201.305.219.294.229.281.245.27.258.256.271.244.282.231.294.216.303.201.317.188.326.17.336.155.344.139.354.122.361.106.369.084.376.07.383.048.39.03.395.011.398-.011.398-.03.396-.048.39-.07.382-.084.378-.106.369-.122.362-.137.354-.157.344-.17.338-.188.324-.2.315-.216.307-.232.292-.244.284-.255.27-.271.256-.281.245-.294.229-.305.218-.317.201-.324.189-.338.17-.344.155-.354.14-.363.122-.369.104-.379.087-.383.07-.391.048-.396.03-.4.011v-.002l-.397-.009-.395-.03-.389-.048-.384-.07-.376-.087-.37-.104-.36-.122-.354-.14-.343-.155-.338-.17-.324-.189-.317-.201-.305-.218-.292-.229-.284-.245-.268-.256-.259-.27-.244-.284-.23-.292-.219-.305-.201-.317-.189-.324-.17-.338-.156-.344-.14-.354-.123-.362-.104-.369-.087-.378-.07-.382-.048-.39-.03-.396z" fill="#da2427"/></g></svg>

<?xml version="1.0" encoding="UTF-8" standalone="no"?>
<!DOCTYPE svg PUBLIC "-//W3C//DTD SVG 1.1//EN" "http://www.w3.org/Graphics/SVG/1.1/DTD/svg11.dtd">
<svg width="100%" height="100%" viewBox="0 0 560 400" version="1.1" xmlns="http://www.w3.org/2000/svg" xmlns:xlink="http://www.w3.org/1999/xlink" xml:space="preserve" xmlns:serif="http://www.serif.com/" style="fill-rule:evenodd;clip-rule:evenodd;stroke-linejoin:round;stroke-miterlimit:1.41421;">
    <g transform="matrix(0.974958,0,0,0.974958,42.635,-31.4873)">
        <path id="_54807896" d="M305.649,321.041L428.085,321.049L428.085,275.145C428.085,207.369 373.462,152.414 305.706,152.414L305.649,152.412L305.649,321.041Z" style="fill:rgb(218,36,39);"/>
        <path id="_55196904" d="M305.649,206.617L305.649,208.848L304.533,208.848L304.533,206.617L305.649,206.617ZM311.16,208.861L311.16,208.856L305.649,208.848L305.649,206.617L311.16,206.626L311.16,208.861ZM377.924,273.413L375.694,273.413L375.609,270.086L375.359,266.808L374.946,263.578L374.382,260.401L373.662,257.276L372.791,254.213L371.776,251.214L370.623,248.284L369.33,245.428L367.906,242.644L366.352,239.938L364.671,237.321L362.871,234.79L360.957,232.349L358.929,230.01L356.79,227.764L354.55,225.629L352.211,223.599L349.771,221.68L347.241,219.885L344.625,218.202L341.92,216.647L339.137,215.223L336.281,213.93L333.348,212.776L330.35,211.761L327.292,210.889L324.168,210.169L320.992,209.604L317.763,209.191L314.486,208.942L311.16,208.861L311.16,206.622L314.591,206.711L317.982,206.969L321.324,207.392L324.614,207.982L327.843,208.729L331.015,209.627L334.118,210.677L337.148,211.874L340.108,213.212L342.987,214.688L345.78,216.296L348.491,218.03L351.109,219.896L353.629,221.877L356.054,223.976L358.373,226.189L360.582,228.505L362.681,230.932L364.664,233.452L366.525,236.07L368.259,238.783L369.866,241.577L371.342,244.456L372.678,247.418L373.876,250.453L374.925,253.557L375.823,256.725L376.569,259.955L377.16,263.246L377.581,266.589L377.839,269.981L377.924,273.413ZM375.695,321.049L375.694,273.413L377.924,273.413L377.925,321.049L375.695,321.049ZM375.695,321.049L377.925,321.049L377.925,322.165L375.695,322.165L375.695,321.049Z" style="fill:white;fill-rule:nonzero;"/>
        <path d="M332.447,321.041L334.678,321.041L334.678,322.156L332.447,322.156L332.447,321.041ZM332.434,284.151L334.668,284.151L334.678,321.041L332.447,321.041L332.438,284.151L332.434,284.151ZM315.01,266.731L315.01,264.501L316.017,264.525L317.017,264.601L318.002,264.723L318.972,264.899L319.922,265.12L320.855,265.383L321.774,265.692L322.664,266.046L323.538,266.439L324.386,266.875L325.206,267.348L326.006,267.856L326.777,268.404L327.517,268.989L328.233,269.607L328.916,270.256L329.565,270.939L330.183,271.655L330.768,272.395L331.315,273.166L331.824,273.966L332.296,274.786L332.732,275.633L333.125,276.507L333.478,277.396L333.787,278.309L334.05,279.246L334.27,280.195L334.447,281.164L334.569,282.148L334.644,283.146L334.673,284.151L332.434,284.151L332.414,283.251L332.347,282.367L332.233,281.496L332.084,280.641L331.89,279.797L331.653,278.974L331.379,278.166L331.069,277.372L330.72,276.604L330.337,275.853L329.917,275.121L329.461,274.416L328.975,273.733L328.459,273.072L327.912,272.443L327.333,271.839L326.729,271.26L326.1,270.712L325.439,270.197L324.755,269.711L324.051,269.254L323.319,268.834L322.567,268.451L321.798,268.101L321.004,267.791L320.199,267.517L319.371,267.28L318.526,267.086L317.67,266.936L316.798,266.823L315.912,266.755L315.01,266.731ZM305.647,264.531L315.01,264.501L315.01,266.731L305.647,266.762L305.647,264.531ZM305.647,264.531L305.647,266.762L304.531,266.762L304.531,264.531L305.647,264.531Z" style="fill:white;fill-rule:nonzero;"/>
        <path id="_54807176" d="M256.065,285.608L245.065,285.608C244.201,282.453 242.493,276.506 233.383,276.506C228.104,276.506 220.317,280.028 220.317,294.924C220.317,304.4 224.062,312.919 233.383,312.919C239.491,312.919 243.742,309.462 245.065,303.009L256.066,303.009C253.87,314.455 246.394,322.454 233.172,322.454C219.152,322.454 209.087,312.998 209.087,294.783C209.087,276.362 219.73,266.963 233.328,266.963C249.106,266.963 255.478,277.832 256.065,285.608ZM107.535,313.838L107.542,314.184L107.568,314.522L107.612,314.856L107.669,315.186L107.743,315.507L107.834,315.823L107.939,316.133L108.057,316.435L108.191,316.731L108.34,317.015L108.498,317.296L108.673,317.565L108.857,317.826L109.056,318.079L109.265,318.319L109.485,318.55L109.718,318.771L109.958,318.98L110.211,319.179L110.472,319.363L110.741,319.537L111.022,319.695L111.307,319.844L111.602,319.977L111.904,320.095L112.215,320.2L112.529,320.29L112.852,320.364L113.179,320.421L113.511,320.465L113.849,320.49L114.194,320.499L114.194,320.497L114.541,320.49L114.881,320.465L115.215,320.421L115.546,320.364L115.867,320.29L116.184,320.2L116.494,320.095L116.796,319.977L117.092,319.844L117.378,319.695L117.658,319.537L117.927,319.363L118.188,319.179L118.439,318.98L118.681,318.771L118.911,318.55L119.132,318.319L119.341,318.079L119.537,317.826L119.723,317.567L119.897,317.296L120.055,317.015L120.203,316.731L120.333,316.435L120.453,316.133L120.558,315.823L120.646,315.507L120.721,315.186L120.778,314.856L120.822,314.522L120.847,314.184L120.854,313.838L121.973,313.838L120.854,313.838L120.847,313.493L120.822,313.154L120.778,312.822L120.721,312.494L120.646,312.172L120.558,311.855L120.453,311.546L120.336,311.244L120.203,310.948L120.055,310.661L119.897,310.383L119.722,310.114L119.537,309.851L119.341,309.6L119.132,309.357L118.911,309.126L118.68,308.907L118.438,308.697L118.188,308.498L117.927,308.314L117.658,308.14L117.378,307.981L117.093,307.833L116.797,307.699L116.495,307.581L116.185,307.476L115.868,307.385L115.546,307.311L115.216,307.254L114.882,307.21L114.542,307.185L114.196,307.178L114.196,307.175L114.196,306.061L114.196,307.175L113.851,307.185L113.513,307.21L113.18,307.254L112.853,307.311L112.53,307.385L112.214,307.476L111.904,307.581L111.603,307.699L111.307,307.833L111.022,307.981L110.742,308.14L110.473,308.314L110.212,308.5L109.961,308.697L109.718,308.907L109.487,309.128L109.265,309.36L109.056,309.6L108.859,309.853L108.673,310.114L108.498,310.383L108.337,310.664L108.191,310.948L108.057,311.244L107.939,311.546L107.834,311.855L107.743,312.172L107.669,312.494L107.612,312.822L107.568,313.154L107.542,313.493L107.535,313.838ZM114.194,320.497L114.194,321.614L114.194,320.497ZM211.247,321.058L199.275,321.058L195.9,310.194L176.462,310.194L172.783,321.058L161.186,321.058L179.988,268.355L192.688,268.355L211.247,321.058ZM141.287,321.058L130.277,321.058L130.277,268.355L167.778,268.355L167.778,277.684L141.287,277.684L141.287,289.573L164.49,289.573L164.49,298.902L141.287,298.902L141.287,321.058ZM298.505,321.058L260.489,321.058L260.489,268.355L298.443,268.355L298.443,277.684L270.745,277.684L270.745,288.757L295.135,288.757L295.135,298.083L270.745,298.083L270.745,311.737L298.505,311.737L298.505,321.058ZM115.194,313.535L115.281,313.531L115.373,313.525L115.468,313.517L115.557,313.507L115.641,313.493L115.724,313.479L115.804,313.461L115.879,313.44L115.951,313.419L116.021,313.395L116.088,313.367L116.148,313.341L116.207,313.312L116.262,313.279L116.315,313.245L116.359,313.211L116.407,313.173L116.447,313.136L116.487,313.095L116.522,313.053L116.554,313.008L116.587,312.961L116.615,312.909L116.641,312.856L116.666,312.796L116.688,312.73L116.707,312.665L116.723,312.589L116.737,312.51L116.748,312.426L116.754,312.338L116.754,312.238L117.873,312.238L117.869,312.381L117.858,312.527L117.843,312.668L117.82,312.804L117.791,312.936L117.754,313.067L117.71,313.19L117.66,313.31L117.603,313.428L117.54,313.538L117.472,313.646L117.396,313.748L117.313,313.843L117.229,313.932L117.137,314.017L117.046,314.094L116.944,314.167L116.844,314.232L116.74,314.291L116.633,314.346L116.521,314.398L116.41,314.44L116.297,314.48L116.181,314.516L116.149,314.524L117.664,316.846L116.729,317.454L114.901,314.652L115.099,314.652L115.194,314.65L115.205,314.65L115.204,314.65L115.194,314.652L115.204,314.65L115.205,314.65L115.33,314.646L115.456,314.639L115.578,314.627L115.701,314.613L115.824,314.595L115.943,314.571L116.062,314.545L116.149,314.524L115.685,313.811L115.194,314.13L114.749,314.419L114.901,314.652L112.514,314.652L112.514,317.225L111.395,317.225L111.395,310.443L111.955,309.883L111.955,311.003L112.514,311.003L112.514,310.443L111.955,309.883L114.921,309.883L115.098,309.888L115.269,309.894L115.437,309.904L115.599,309.919L115.756,309.939L115.907,309.965L116.049,309.992L116.192,310.027L116.328,310.066L116.459,310.111L116.586,310.161L116.709,310.217L116.824,310.277L116.936,310.344L117.041,310.415L117.144,310.493L117.236,310.575L117.329,310.668L117.408,310.761L117.483,310.858L117.552,310.963L117.613,311.069L117.665,311.176L117.711,311.289L117.752,311.404L117.786,311.52L117.814,311.636L117.835,311.754L117.852,311.871L117.864,311.993L117.869,312.115L117.873,312.238L116.754,312.238L116.755,312.154L116.749,312.076L116.742,312.002L116.734,311.929L116.721,311.863L116.707,311.799L116.69,311.741L116.671,311.687L116.65,311.639L116.625,311.589L116.599,311.545L116.574,311.505L116.543,311.464L116.507,311.424L116.475,311.392L116.432,311.354L116.389,311.32L116.338,311.284L116.282,311.252L116.219,311.219L116.153,311.189L116.078,311.16L115.996,311.133L115.908,311.107L115.813,311.085L115.705,311.062L115.594,311.045L115.476,311.03L115.35,311.018L115.216,311.008L115.072,311.002L114.921,311.003L112.514,311.003L112.514,313.533L111.955,313.533L111.955,314.652L112.514,314.652L112.514,313.533L115.194,313.533L115.183,313.535L115.194,313.535ZM114.921,311.003L114.921,309.883L114.921,311.003ZM111.395,310.443L111.395,309.883L111.955,309.883L111.395,310.443ZM186.29,280.248L186.15,280.248L179.402,301.096L192.817,301.096L186.29,280.248ZM132.518,209.055C139.486,209.055 157.825,212.068 157.825,236.803C157.826,261.534 139.485,264.549 132.518,264.549C125.532,264.549 107.182,261.534 107.182,236.803C107.183,212.068 125.532,209.055 132.518,209.055ZM235.983,263.153L224.964,263.153L224.964,219.769L209.035,219.769L209.035,210.454L251.893,210.454L251.893,219.769L235.983,219.769L235.983,263.153ZM266.856,263.153L255.855,263.153L255.855,210.454L266.856,210.454L266.856,230.411L287.405,230.411L287.405,210.454L298.443,210.454L298.443,263.153L287.405,263.153L287.405,239.529L266.856,239.529L266.856,263.153ZM69.113,263.153L58.838,263.153L58.838,210.454L70.426,210.454L91.351,247.152L91.499,247.152L91.499,210.454L101.792,210.454L101.792,263.153L90.773,263.153L69.269,225.576L69.113,225.576L69.113,263.153ZM163.226,210.428L189.825,210.428C203.809,210.428 206.362,220.749 206.362,225.305C206.364,231.08 203.432,236.064 198.234,237.823C202.56,239.727 204.911,241.332 204.911,251.146C204.912,258.839 204.911,260.741 207.25,261.625L207.251,263.008L195.075,263.008C194.35,260.523 193.92,257.806 193.92,252.393C193.92,245.217 193.489,242.431 185.343,242.431L174.002,242.431L174.002,263.008L163.226,263.008L163.226,210.428ZM132.518,255.228C138.46,255.228 146.816,251.558 146.816,236.803C146.816,222.058 138.459,218.373 132.518,218.373C126.576,218.373 118.191,222.058 118.191,236.803C118.193,251.558 126.576,255.229 132.518,255.228ZM186.894,233.575C192.608,233.575 195.389,231.592 195.389,226.39C195.389,223.616 194.139,219.516 187.696,219.516L174.002,219.516L174.002,233.575L186.894,233.575ZM193.019,205.247L182.009,205.247L182.009,161.864L166.071,161.864L166.071,152.544L208.957,152.544L208.957,161.864L193.019,161.864L193.019,205.247ZM298.505,205.247L260.489,205.247L260.489,152.544L298.443,152.544L298.443,161.864L270.745,161.864L270.745,172.952L295.135,172.952L295.135,182.271L270.745,182.271L270.745,195.927L298.505,195.927L298.505,205.247ZM222.826,205.247L211.816,205.247L211.816,152.544L222.826,152.544L222.826,172.519L243.367,172.519L243.367,152.544L254.385,152.544L254.385,205.247L243.367,205.247L243.367,181.606L222.826,181.606L222.826,205.247ZM106.416,313.838L106.428,313.44L106.458,313.045L106.506,312.655L106.576,312.272L106.663,311.896L106.767,311.527L106.89,311.166L107.03,310.812L107.186,310.468L107.358,310.13L107.545,309.806L107.746,309.489L107.963,309.184L108.195,308.892L108.439,308.608L108.696,308.337L108.966,308.081L109.248,307.836L109.543,307.605L109.848,307.388L110.165,307.187L110.489,306.998L110.826,306.827L111.17,306.672L111.524,306.532L111.886,306.409L112.255,306.306L112.63,306.219L113.014,306.148L113.403,306.1L113.798,306.07L114.196,306.061L114.196,306.058L114.595,306.07L114.991,306.1L115.382,306.148L115.765,306.219L116.143,306.306L116.513,306.409L116.875,306.532L117.229,306.672L117.573,306.827L117.911,306.998L118.235,307.187L118.552,307.388L118.857,307.607L119.151,307.836L119.432,308.081L119.702,308.339L119.958,308.61L120.202,308.892L120.433,309.186L120.649,309.489L120.85,309.806L121.038,310.132L121.208,310.468L121.363,310.812L121.502,311.166L121.624,311.527L121.73,311.896L121.814,312.272L121.884,312.655L121.932,313.045L121.962,313.44L121.973,313.838L121.962,314.236L121.932,314.632L121.884,315.022L121.814,315.404L121.73,315.782L121.624,316.151L121.502,316.513L121.365,316.867L121.208,317.211L121.038,317.549L120.85,317.873L120.65,318.188L120.434,318.495L120.202,318.787L119.958,319.071L119.703,319.341L119.432,319.597L119.151,319.842L118.857,320.071L118.552,320.289L118.235,320.49L117.911,320.679L117.573,320.849L117.229,321.004L116.875,321.144L116.512,321.266L116.143,321.37L115.764,321.457L115.381,321.527L114.99,321.575L114.594,321.605L114.194,321.616L114.194,321.614L113.797,321.605L113.402,321.575L113.013,321.527L112.629,321.457L112.253,321.37L111.883,321.266L111.523,321.144L111.169,321.004L110.826,320.849L110.488,320.679L110.164,320.49L109.847,320.289L109.542,320.071L109.25,319.842L108.966,319.597L108.698,319.341L108.439,319.071L108.195,318.787L107.965,318.495L107.746,318.19L107.545,317.873L107.356,317.549L107.186,317.211L107.03,316.867L106.89,316.513L106.767,316.151L106.663,315.782L106.576,315.404L106.506,315.022L106.458,314.632L106.428,314.236L106.416,313.838Z" style="fill:rgb(218,36,39);"/>
    </g>
</svg>
